src/assets/images/icon/section-headers/details.svg

<svg xmlns="http://www.w3.org/2000/svg" viewBox="0 0 28 28" enable-background="new 0 0 28 28"><path fill-rule="evenodd" clip-rule="evenodd" d="M26 21c0 .3-.2.5-.5.5h-18c-.3 0-.5-.2-.5-.5v-2c0-.3.2-.5.5-.5h18c.3 0 .5.2.5.5v2zM5 21c0 .3-.2.5-.5.5h-2c-.3 0-.5-.2-.5-.5v-2c0-.3.2-.5.5-.5h2c.3 0 .5.2.5.5v2zm21-6c0 .3-.2.5-.5.5h-18c-.3 0-.5-.2-.5-.5v-2c0-.3.2-.5.5-.5h18c.3 0 .5.2.5.5v2zM5 15c0 .3-.2.5-.5.5h-2c-.3 0-.5-.2-.5-.5v-2c0-.3.2-.5.5-.5h2c.3 0 .5.2.5.5v2zm21-6c0 .3-.2.5-.5.5h-18c-.3 0-.5-.2-.5-.5V7c0-.3.2-.5.5-.5h18c.3 0 .5.2.5.5v2zM5 9c0 .3-.2.5-.5.5h-2c-.3 0-.5-.2-.5-.5V7c0-.3.2-.5.5-.5h2c.3 0 .5.2.5.5v2z"/></svg>

<?xml version="1.0" encoding="utf-8"?>
<!-- Generator: Adobe Illustrator 18.1.1, SVG Export Plug-In . SVG Version: 6.00 Build 0)  -->
<svg version="1.1" id="Layer_1" xmlns="http://www.w3.org/2000/svg" xmlns:xlink="http://www.w3.org/1999/xlink" x="0px" y="0px"
	 viewBox="0 0 28 28" enable-background="new 0 0 28 28" xml:space="preserve">
<g id="Details">
	<path fill-rule="evenodd" clip-rule="evenodd" d="M26,21c0,0.3-0.2,0.5-0.5,0.5h-18C7.2,21.5,7,21.3,7,21v-2c0-0.3,0.2-0.5,0.5-0.5
		h18c0.3,0,0.5,0.2,0.5,0.5V21z M5,21c0,0.3-0.2,0.5-0.5,0.5h-2C2.2,21.5,2,21.3,2,21v-2c0-0.3,0.2-0.5,0.5-0.5h2
		C4.8,18.5,5,18.7,5,19V21z M26,15c0,0.3-0.2,0.5-0.5,0.5h-18C7.2,15.5,7,15.3,7,15v-2c0-0.3,0.2-0.5,0.5-0.5h18
		c0.3,0,0.5,0.2,0.5,0.5V15z M5,15c0,0.3-0.2,0.5-0.5,0.5h-2C2.2,15.5,2,15.3,2,15v-2c0-0.3,0.2-0.5,0.5-0.5h2C4.8,12.5,5,12.7,5,13
		V15z M26,9c0,0.3-0.2,0.5-0.5,0.5h-18C7.2,9.5,7,9.3,7,9V7c0-0.3,0.2-0.5,0.5-0.5h18C25.8,6.5,26,6.7,26,7V9z M5,9
		c0,0.3-0.2,0.5-0.5,0.5h-2C2.2,9.5,2,9.3,2,9V7c0-0.3,0.2-0.5,0.5-0.5h2C4.8,6.5,5,6.7,5,7V9z"/>
</g>
</svg>
